!!!OTL: 564. Wandermarsch der Studenten.
!!!ODT: 1850 (um)
!!!ARE: Europa, Mitteleuropa, Deutschland
!!!SCT: B0564
!!!TXL: @@DE
!!!YEM: Copyright 1995, estate of Helmut Schaffrath.
**kern	**text
*ICvox	*
*Ivox	*
*clefG2	*
*M2/4	*
*k[f#]	*
*G:	*
=1	=1
!LO:TX:a:t=Munter.	!
{8.b	Stu-
16a	-di-
8g	-o
8e	auf
=2	=2
8d	ein-
8e	-er
4d}	Reiſ'
=3	=3
{8d	(juch-
8cc	-hei-
4a	-di,
=4	=4
8d	juch-
8b	-hei-
4g}	-da)
=5	=5
{8.b	ganʒ
16a	ſa-
8g	-mos
8e	ʒu
=6	=6
8d	le-
8e	-ben
4d}	weiß
=7	=7
{8d	(juch
8cc	hei-
8a	-di,
8f#	hei-
=8	=8
4g	-da!):
4r}	.
=9||	=9||
{8a	Jm-
8b	-mer-
8a	-fort
8b	durch
=10	=10
8f#	Dick
8b	und
4a}	Dünn
=11	=11
{8a	ſchlendert
8a	.
8b	er
8cc#	durchs
=12	=12
8dd	Da-
8d	-ſein
4d}	hin.
=13||	=13||
{8d	Juch-
8d	-hei-
8g	-di,
8g	hei-
=14	=14
8b	-di,
8b	hei-
4dd}	-da,
=15	=15
{8cc	juch-
8d	-hei-
4a	-di,
=16	=16
8b	juch-
8d	-hei-
4g}	-da,
=17	=17
{8d	juch-
8d	-hei-
8g	-di,
8g	hei-
=18	=18
8b	-di,
8b	hei-
4dd}	-da,
=19	=19
{8cc	juch-
8d	-hei-
8a	-di,
8d	hei-
=20	=20
4g	-da.
4r}	.
==	==
!!!AGN: Studenten -, Wander - Lied
!!!GTL: Studentenlieder
!!!ONB: ESAC (Essen Associative Code) Database: BOEHME
!!!AMT: simple duple
!!!AIN: vox
!!!EED: Helmut Schaffrath
!!!EEV: 1.0
!!@@COMMENT:"Dieſes Urbummellied iſt um 1850 unter Studenten entſtanden, wurde dann mit kleiner Text-
!!abänderung von Turnern und Malern aufgenommen, ſpäter und noch jetʒt von Soldaten mit dem
!!Text Bin ein luſt'ger Grenadier" (ſ. Preuß. Soldatenliederbuch Nr. 83) und endlich mit
!!Jugendtexten von Schulkindern geſungen. Der Anfang der Melodie gleicht dem der Henriette Sonn-
!!tag-Polka", komponirt 1848 v. Weißenborn in Weimar, ʒu der man ſpäter die Worte ſang:
!!"Traugott, laß den Affen los"! Friedländer (Commersb. S. 171) fand Text und Melodie
!!ʒuerſt in: "Deutſches Liederbuch, hauptſächlich ʒum Gebrauch für Studenten". Nürnb. Erlangen) 1852."
!!@@END:
!!!URL-scan: https://archive.org/details/BoehmeVtLieder1895/page/n449/mode/2up
!!!ENC: Anna Maria Matuszewska
!!!EEV: 2024/12/07
*-	*-
